images/icons/quote-left.svg

<svg width="64" height="64" viewBox="0 0 64 64" fill="none" xmlns="http://www.w3.org/2000/svg">
<path d="M58 32H48V24C48 19.5875 51.5875 16 56 16H57C58.6625 16 60 14.6625 60 13V7C60 5.3375 58.6625 4 57 4H56C44.95 4 36 12.95 36 24V54C36 57.3125 38.6875 60 42 60H58C61.3125 60 64 57.3125 64 54V38C64 34.6875 61.3125 32 58 32ZM22 32H12V24C12 19.5875 15.5875 16 20 16H21C22.6625 16 24 14.6625 24 13V7C24 5.3375 22.6625 4 21 4H20C8.95 4 0 12.95 0 24V54C0 57.3125 2.6875 60 6 60H22C25.3125 60 28 57.3125 28 54V38C28 34.6875 25.3125 32 22 32Z" fill="black"/>
</svg>

<svg width="64" height="64" viewBox="0 0 64 64" fill="none" xmlns="http://www.w3.org/2000/svg"><path d="M58 32H48v-8c0-4.413 3.587-8 8-8h1c1.663 0 3-1.338 3-3V7c0-1.662-1.337-3-3-3h-1c-11.05 0-20 8.95-20 20v30c0 3.313 2.688 6 6 6h16c3.313 0 6-2.688 6-6V38c0-3.313-2.688-6-6-6Zm-36 0H12v-8c0-4.413 3.588-8 8-8h1c1.663 0 3-1.338 3-3V7c0-1.662-1.337-3-3-3h-1C8.95 4 0 12.95 0 24v30c0 3.313 2.688 6 6 6h16c3.313 0 6-2.688 6-6V38c0-3.313-2.688-6-6-6Z" fill="#000"/></svg>
